www/assets/icons/calendar_month.svg

<svg width="24" height="24" viewBox="0 0 24 24" xmlns="http://www.w3.org/2000/svg" fill='currentColor'><path d="M19 4H18V2H16V4H8V2H6V4H5C3.89 4 3.01 4.9 3.01 6L3 20C3 21.1 3.89 22 5 22H19C20.1 22 21 21.1 21 20V6C21 4.9 20.1 4 19 4ZM19 20H5V10H19V20ZM9 14H7V12H9V14ZM13 14H11V12H13V14ZM17 14H15V12H17V14ZM9 18H7V16H9V18ZM13 18H11V16H13V18ZM17 18H15V16H17V18Z"/></svg>

<svg xmlns="http://www.w3.org/2000/svg" width="24" height="24" viewBox="0 0 24 24" fill='currentColor'><path d="M19 4h-1V2h-2v2H8V2H6v2H5c-1.11 0-1.99.9-1.99 2L3 20a2 2 0 0 0 2 2h14c1.1 0 2-.9 2-2V6c0-1.1-.9-2-2-2m0 16H5V10h14zM9 14H7v-2h2zm4 0h-2v-2h2zm4 0h-2v-2h2zm-8 4H7v-2h2zm4 0h-2v-2h2zm4 0h-2v-2h2z"/></svg>
